X: 34576
T: Rising Of The Sun, The
R: hornpipe
M: 4/4
K: Dmajor
|:(3gfe|d2 F>B A2 F>A|(3Bcd e>g f>B (3cBA|d2 F>B A2 F>D|E>GF>E D>gf>e|
d2 F>B A2 F>A|(3Bcd e>g f>B (3cBA|d2 d>B A2 F>A|B>dc>B A2:|
|:A2|d>ef>g a>fe>d|(3cBA e>A f>Ae>A|d>ef>g a>fe>d|(3cBA B>c d2- d>A|
d>ef>g a>fe>d|(3cBA e>A f>Ae>A|1 d>ef>g a>ba>g|f>gf>e d2:|
[2 d>f (3fff d>g (3ggg|f>gf>e d>gf>e||

